X:1
T:26.   Drink to Me Only With Thine Eyes
T:Old English Air
T:Ben Jonson (1573-1637)
T:Transcribed By  Jennifer Lee
T:26.   Drink to Me Only With Thine Eyes
C:Old English Air
Z:Ben Jonson (1573-1637)
%%score { ( 1 3 ) | ( 2 4 ) }
L:1/8
M:6/8
K:Eb
V:1 treble nm="Piano" snm="Pno."
V:3 treble 
V:2 bass 
V:4 bass 
V:1
"^Rather slowlym"!f! [EG][EG][EG] [EA]2 [DA] | [EB][DA]!<(![EG] F!<)!GA |!>(! BE!>)![EA] G2 [DF] | %3
w: Drink to me on- ly|with _ thine eyes, _ And|I _ will pledge with|
 E3- E2 x | [EG][EG][EG] [EA]2 [DA] | [EB][DA]!<(![EG] F!<)![EG][DA] |!>(! BE!>)![EA] G2 [DF] | %7
w: mine, _|Or leave a kiss with-|in _ the cup, _ And|I'll _ not ask for|
 E3 E x [GB] | [GB][EG][FB] [Ge]2 [FB] | [GB][EG][FB] B2 [EB] | c2 [GB]"^rit." BA[EG] | %11
w: wine; _ The|thirst * that from the|soul _ doth rise Doth|ask a drink _ di-|
 G3- [DF]2 z | %12
w: vine; _|
"^2.  I sent thee late a rosy wreath,     Not so much hon'ring thee,     As giving it a hope that there     It could not withered be;     But thou thereon didst only breathe     And send'st it back to me;     Since when it grows and smells I swear,     Not of itself but thee." [EG][EG][EG] [EA]2 [DA] | %13
w: But might I of Jove's|
 BA[EG]!<(! FG!<)![EA] |"^rit." BE[EA]!>(! G2!>)! [DF] | E3 E2 x |] %16
w: nec- * tar sup _ I|would _ not change for|thine. *|
V:2
 [E,B,][E,B,][E,B,] [F,B,]2 [F,B,] | B,2 x B,2 x | [G,B,]2 [A,C] B,2 [B,,A,] | [E,G,]3- [E,G,]2 z | %4
 [E,B,][E,B,][E,B,] [F,B,]2 [F,B,] | B,2 [E,B,] B,2 [F,B,] | [G,B,]2 [A,C] B,2 [B,,A,] | %7
 [E,G,]3- [E,G,] z [E,B,] | [E,B,]2 [D,B,] B,C[E,D] | EB,[D,B,] B,2 [G,E] | %10
 A,2 [F,E] [D,B,]2 [E,B,] | [B,,B,]3- [B,,B,]2 z | [E,B,][E,B,][E,B,] [F,B,]2 [F,B,] | %13
 B,2 [E,_D] [A,C][G,B,][F,A,] | x6 | x6 |] %16
V:3
 x6 | x3 FED | E2 x EC z | E3- E2 z | x6 | x6 | E2 x EC z | E3- E z x | x6 | x3 GF x | EF x F2 x | %11
 EDC x3 | x6 | E2 x E2 x | E2 x EC z | E3- E2 z |] %16
V:4
 x6 | G,F,[E,B,] D,E,[F,B,] | x6 | x6 | x6 | G,F, x D,E, x | x6 | x6 | x3 E,2 x | E,2 x E,F, x | %10
 x6 | x6 | x6 | G,F, x4 | [B,,G,]2 [B,,C] [B,,B,]2 [B,,A,] | [E,G,]3- [E,G,]2 z |] %16

